media/theme/theme-2/open_fitur.svg

<svg fill="none" height="77" viewBox="0 0 63 77" width="63" xmlns="http://www.w3.org/2000/svg" xmlns:xlink="http://www.w3.org/1999/xlink"><clipPath id="a"><path d="m0 0h63v77h-63z"/></clipPath><g clip-path="url(#a)"><path clip-rule="evenodd" d="m15.0792.00002477c1.4059-.03628617 2.8562-.09532127 4.006.30535323 1.1473.39981 2.2462.734022 3.2501 1.323202 3.4072 1.99961 6.0393 5.37549 7.9364 9.41502.5336 1.1362 1.0658 2.4135 1.474 3.6643.1715.5256.2689 1.2461.529 1.6794v-.0509c.3357-.4865.5269-1.2122.7937-1.7812.4734-1.0095 1.0242-1.988 1.5495-2.9517.3462-.6352.7771-1.1967 1.1337-1.83216l.4158-.50892c.4097-.72949.9316-1.3828 1.4739-1.93391.5389-.54765 1.0264-1.24951 1.5873-1.78123 1.3782-1.30696 2.9485-2.27809 4.724-3.05353 2.3231-1.01454 5.8363-.67641 7.8986.35624 4.8957 2.45143 8.3336 6.8272 10.204 13.33381.7275 2.5303 1.3843 6.8854.6803 10.2293-.8311 3.9464-2.2049 6.5832-3.7793 9.466-3.3571 6.1467-8.3555 10.2915-13.114 14.5552-1.4202 1.2723-2.8227 2.6138-4.1949 3.9696-.7551.746-1.4422 1.6295-2.192 2.3919-.6062.6163-1.127 1.4662-1.6629 2.1884-2.2222 2.9934-3.8764 6.42-5.1775 10.6873-.498 1.6332-.7126 3.476-1.0582 5.2928-.1283.6744-.0651 1.4052-.2268 2.0357h-.0378v-1.7303c-.1273-.2601-.0233-.7715-.0755-1.1196-.0934-.6219.2418-2.4836.3779-3.1045.2387-1.0906.3378-2.1089.6425-3.1044.7892-2.5792 1.7114-4.8205 2.8344-6.9213.379-.709.8532-1.3339 1.2471-2.0357l.378-.4581c.4564-.804.9902-1.5228 1.5872-2.1374.3946-.4016.7-1.022 1.096-1.425 1.0185-1.0367 1.9494-2.1818 2.9856-3.2062 1.3243-1.3094 2.565-2.7987 3.8926-4.1223.2657-.2647.4929-.6504.7559-.9161.7592-.7672 1.4029-1.6781 2.1542-2.4428l.6802-.967c.4815-.4901.9218-1.1335 1.285-1.7812.4312-.7688 1.0415-1.4478 1.4739-2.2392 1.4009-2.565 2.5922-5.0421 3.2501-8.6517.0975-.5349-.0166-1.0452.0756-1.6286.0665-.42.0344-1.1016-.0378-1.5267-.0253-.3902-.0505-.7804-.0756-1.1706-.1957-1.0178-.3843-2.0167-.6424-2.9008-1.4592-4.9994-4.1107-8.3495-7.8987-10.2294-1.3378-.664-3.7002-1.1552-5.4043-.5089-3.4863 1.3228-5.8952 3.7355-7.7852 7.1758-.6717 1.2226-1.4533 2.4384-1.9652 3.8678h-.0756c-.074-.4798-.2851-.8753-.4157-1.2723-.422-1.282-.8954-2.3736-1.4361-3.4607-1.5134-3.0423-3.4748-5.4091-6.1224-6.9213-.55-.3142-1.0909-.4157-1.7007-.6616-1.4385-.5802-3.8699-.6894-5.4043-.1018-1.4804.567-2.8071 1.2026-3.9682 2.1884-.5858.4974-1.1149 1.1221-1.6629 1.6794l-.3401.5089c-.3939.5307-.7581 1.0135-1.09598 1.6286-.2218.4038-.51511.7899-.71806 1.2214-.6995 1.4874-1.21691 3.1491-1.66286 4.9875-.24377 1.005-.26327 2.1308-.45351 3.2062-.0126.3053-.0252.6107-.0378.916-.14826.9039-.19561 3.0422-.03779 3.9696.0126.3563.0252.7125.03779 1.0688.19891 1.1407.23114 2.2974.49131 3.3589.46004 1.877.95089 3.7241 1.66286 5.2927.27868.6141.55714 1.2831.86924 1.8831.1961.377.5279.7592.6425 1.2214h-.0756c-.3109-.5334-.8759-.9188-1.28497-1.3232-.8326-.8233-1.55451-1.8563-2.38092-2.6973l-.9826-1.3232c-.53065-.7148-1.09289-1.3725-1.54949-2.1884l-.45351-.6107c-.42611-.7642-.88019-1.5096-1.28495-2.2901-.88842-1.7133-1.58312-3.738-2.116373-5.9035-.155214-.6304-.170747-1.21-.30234-1.8831-.2160215-1.1048-.26428245-2.3638-.264547-3.766v-1.5268c.182122-1.0861.13148-2.2224.340132-3.2571.420554-2.0852.850748-3.994 1.511698-5.6999.49445-1.2959 1.06305-2.53804 1.70066-3.71513.25944-.47584.64557-.85769.90702-1.3232.22297-.39696.50147-.87275.79364-1.17052.55502-.56567 1.05566-1.24131 1.62507-1.78123 1.20067-1.13846 2.5522-1.9963 4.00598-2.79907.8816-.486788 1.8873-.636411 2.8722-.966956z" fill="#000" fill-rule="evenodd"/></g></svg>

<svg width="63" height="77" viewBox="0 0 63 77" fill="none" xmlns="http://www.w3.org/2000/svg">
<g id="love 1" clip-path="url(#clip0_12_28)">
<path id="Color Fill 1" fill-rule="evenodd" clip-rule="evenodd" d="M15.0792 2.4767e-05C16.4851 -0.0362614 17.9354 -0.0952965 19.0852 0.305378C20.2325 0.705188 21.3314 1.0394 22.3353 1.62858C25.7425 3.62819 28.3746 7.00407 30.2717 11.0436C30.8053 12.1798 31.3375 13.4571 31.7457 14.7079C31.9172 15.2335 32.0146 15.954 32.2747 16.3873V16.3364C32.6104 15.8499 32.8016 15.1242 33.0684 14.5552C33.5418 13.5457 34.0926 12.5672 34.6179 11.6035C34.9641 10.9683 35.395 10.4068 35.7516 9.77134L36.1674 9.26242C36.5771 8.53293 37.099 7.87962 37.6413 7.32851C38.1802 6.78086 38.6677 6.079 39.2286 5.54728C40.6068 4.24032 42.1771 3.26919 43.9526 2.49375C46.2757 1.47921 49.7889 1.81734 51.8512 2.84999C56.7469 5.30142 60.1848 9.67719 62.0552 16.1838C62.7827 18.7141 63.4395 23.0692 62.7355 26.4131C61.9044 30.3595 60.5306 32.9963 58.9562 35.8791C55.5991 42.0258 50.6007 46.1706 45.8422 50.4343C44.422 51.7066 43.0195 53.0481 41.6473 54.4039C40.8922 55.1499 40.2051 56.0334 39.4553 56.7958C38.8491 57.4121 38.3283 58.262 37.7924 58.9842C35.5702 61.9776 33.916 65.4042 32.6149 69.6715C32.1169 71.3047 31.9023 73.1475 31.5567 74.9643C31.4284 75.6387 31.4916 76.3695 31.3299 77H31.2921V75.2697C31.1648 75.0096 31.2688 74.4982 31.2166 74.1501C31.1232 73.5282 31.4584 71.6665 31.5945 71.0456C31.8332 69.955 31.9323 68.9367 32.237 67.9412C33.0262 65.362 33.9484 63.1207 35.0714 61.0199C35.4504 60.3109 35.9246 59.686 36.3185 58.9842L36.6965 58.5261C37.1529 57.7221 37.6867 57.0033 38.2837 56.3887C38.6783 55.9871 38.9837 55.3667 39.3797 54.9637C40.3982 53.927 41.3291 52.7819 42.3653 51.7575C43.6896 50.4481 44.9303 48.9588 46.2579 47.6352C46.5236 47.3705 46.7508 46.9848 47.0138 46.7191C47.773 45.9519 48.4167 45.041 49.168 44.2763L49.8482 43.3093C50.3297 42.8192 50.77 42.1758 51.1332 41.5281C51.5644 40.7593 52.1747 40.0803 52.6071 39.2889C54.008 36.7239 55.1993 34.2468 55.8572 30.6372C55.9547 30.1023 55.8406 29.592 55.9328 29.0086C55.9993 28.5886 55.9672 27.907 55.895 27.4819C55.8697 27.0917 55.8445 26.7015 55.8194 26.3113C55.6237 25.2935 55.4351 24.2946 55.177 23.4105C53.7178 18.4111 51.0663 15.061 47.2783 13.1811C45.9405 12.5171 43.5781 12.0259 41.874 12.6722C38.3877 13.995 35.9788 16.4077 34.0888 19.848C33.4171 21.0706 32.6355 22.2864 32.1236 23.7158H32.048C31.974 23.236 31.7629 22.8405 31.6323 22.4435C31.2103 21.1615 30.7369 20.0699 30.1962 18.9828C28.6828 15.9405 26.7214 13.5737 24.0738 12.0615C23.5238 11.7473 22.9829 11.6458 22.3731 11.3999C20.9346 10.8197 18.5032 10.7105 16.9688 11.2981C15.4884 11.8651 14.1617 12.5007 13.0006 13.4865C12.4148 13.9839 11.8857 14.6086 11.3377 15.1659L10.9976 15.6748C10.6037 16.2055 10.2395 16.6883 9.90162 17.3034C9.67982 17.7072 9.38651 18.0933 9.18356 18.5248C8.48406 20.0122 7.96665 21.6739 7.5207 23.5123C7.27693 24.5173 7.25743 25.6431 7.06719 26.7185C7.05459 27.0238 7.04199 27.3292 7.02939 27.6345C6.88113 28.5384 6.83378 30.6767 6.9916 31.6041C7.0042 31.9604 7.0168 32.3166 7.02939 32.6729C7.2283 33.8136 7.26053 34.9703 7.5207 36.0318C7.98074 37.9088 8.47159 39.7559 9.18356 41.3245C9.46224 41.9386 9.7407 42.6076 10.0528 43.2076C10.2489 43.5846 10.5807 43.9668 10.6953 44.429H10.6197C10.3088 43.8956 9.7438 43.5102 9.33473 43.1058C8.50213 42.2825 7.78022 41.2495 6.95381 40.4085L5.97121 39.0853C5.44056 38.3705 4.87832 37.7128 4.42172 36.8969L3.96821 36.2862C3.5421 35.522 3.08802 34.7766 2.68326 33.9961C1.79484 32.2828 1.10014 30.2581 0.566887 28.0926C0.411673 27.4622 0.39614 26.8826 0.264547 26.2095C0.0485255 25.1047 0.000264547 23.8457 0 22.4435V20.9167C0.182122 19.8306 0.13148 18.6943 0.340132 17.6596C0.760686 15.5744 1.19088 13.6656 1.85183 11.9597C2.34628 10.6638 2.91488 9.42166 3.55249 8.24457C3.81193 7.76873 4.19806 7.38688 4.45951 6.92137C4.68248 6.52441 4.96098 6.04862 5.25315 5.75085C5.80817 5.18518 6.30881 4.50954 6.87822 3.96962C8.07889 2.83116 9.43042 1.97332 10.8842 1.17055C11.7658 0.683762 12.7715 0.534139 13.7564 0.203594L15.0792 2.4767e-05Z" fill="black"/>
</g>
<defs>
<clipPath id="clip0_12_28">
<rect width="63" height="77" fill="white"/>
</clipPath>
</defs>
</svg>
